chrome/img/svgs/locked-icon-gray.svg

<svg width="70" height="90" viewBox="0 0 70 90" xmlns="http://www.w3.org/2000/svg"><title>Shape</title><path d="M60.98 36.62h-2.47l-.01-12.31C58.49 10.9 47.58-.01 34.17 0 20.76.01 9.85 10.92 9.86 24.33l.02 12.31H9C4.39 36.65.65 40.39.66 45v36.65C.66 86.26 4.41 90 9.02 90L61 89.97c4.61 0 8.35-3.74 8.34-8.35V44.96c0-4.61-3.75-8.34-8.36-8.34zm-42.14.02l-.02-12.31c0-8.47 6.88-15.36 15.35-15.37 8.47 0 15.36 6.89 15.36 15.35l.02 12.31-30.71.02z" fill-rule="nonzero" fill="gray"/></svg>

<?xml version="1.0" encoding="UTF-8"?>
<svg width="70px" height="90px" viewBox="0 0 70 90" version="1.1" xmlns="http://www.w3.org/2000/svg" xmlns:xlink="http://www.w3.org/1999/xlink">
    <!-- Generator: Sketch 42 (36781) - http://www.bohemiancoding.com/sketch -->
    <title>Shape</title>
    <desc>Created with Sketch.</desc>
    <defs></defs>
    <g id="Symbols" stroke="none" stroke-width="1" fill="none" fill-rule="evenodd">
        <g id="locked-icon" fill-rule="nonzero" fill="#808080">
            <path d="M60.98,36.62 L58.51,36.62 L58.5,24.31 C58.49,10.9 47.58,-0.01 34.17,2.84217103e-14 C20.76,0.01 9.85,10.92 9.86,24.33 L9.88,36.64 L9,36.64 C4.39,36.65 0.65,40.39 0.66,45 L0.66,81.65 C0.66,86.26 4.41,90 9.02,90 L61,89.97 C65.61,89.97 69.35,86.23 69.34,81.62 L69.34,44.96 C69.34,40.35 65.59,36.62 60.98,36.62 Z M18.84,36.64 L18.82,24.33 C18.82,15.86 25.7,8.97 34.17,8.96 C42.64,8.96 49.53,15.85 49.53,24.31 L49.55,36.62 L18.84,36.64 Z" id="Shape"></path>
        </g>
    </g>
</svg>
